**kern	**kern	**dynam
*part1	*part1	*part1
*staff2	*staff1	*
*I"Piano	*	*
*clefF4	*clefG2	*
*k[f#c#g#d#a#]	*k[f#c#g#d#a#]	*
=1	=1	=1
*^	*	*
(4BBB	2.BBB	4r	.
4FF#	.	(8D#L< 8B<	.
.	.	8BBJ<)	.
4GGn)	.	4r	.
*v	*v	*	*
=	=	=
(4FF#	4r	.
4BBB)	4r	.
*	*clefF4	*
4r	4BB 4D#	.
=	=	=
(4FF#	4r	.
4BBB)	4r	.
4r	4BB 4D#	.
=	=	=
4BBB	2.r	.
4r	.	.
4r	.	.
=	=	=
!	!	!LO:DY:a
4FFF# 4FF#	2.r	p
4r	.	.
4r	.	.
*	*clefG2	*
=!|:	=!|:	=!|:
*^	*^	*
4BBB	2.BBB	4ff#	8bL	.
.	.	.	8f#	.
4FF#	.	4dd#	8f#	.
.	.	.	8d#	.
4BB	.	4b	8d#	.
.	.	.	8BJ	.
=	=	=	=	=
4BBB	2.BBB	4ff#	8bL	.
.	.	.	8f#	.
4FF#	.	4dd#	8f#	.
.	.	.	8d#	.
4BB	.	4b	8d#	.
.	.	.	8BJ	.
=	=	=	=	=
4FF#	2.FF#	4f# 4cc#	8eL	.
.	.	.	8A#	.
4C#	.	4f# 4b	8e	.
.	.	.	8B	.
4F#	.	4f# 4a#	8e	.
.	.	.	8c#J	.
=	=	=	=	=
4FF#	2.FF#	4f# 4cc#	8eL	.
.	.	.	8A#	.
4C#	.	4f# 4b	8e	.
.	.	.	8B	.
4F#	.	4f# 4a#	8e	.
.	.	.	8c#J	.
*v	*v	*	*	*
*	*v	*v	*
=	=	=
*-	*-	*-
!!!system-decoration: {(s1,s2)}
!!!RDF**kern: < = below
